X: 27623
T: Moon In May, The
R: reel
M: 4/4
K: Bminor
|:Bc|(dFF)(dFF)dB|c>dcB AGFE|(FBB)(FBB)B|A>GFE GFBc|
(dFF)(dAA)df|e>dcB ABc2|dcBc- cBAG|F/E/Fdc B2:|

